.local/share/icons/Gruvbox-Plus-Dark/panel/24/mintupdate-up-to-date.svg

<svg xmlns="http://www.w3.org/2000/svg" width="24" height="24" version="1.1">
 <defs>
  <style id="current-color-scheme" type="text/css">
   .ColorScheme-Text { color:#ebdbb2; } .ColorScheme-Highlight { color:#458588; }
  </style>
 </defs>
 <g>
  <path style="fill:currentColor;fill-rule:evenodd" class="ColorScheme-Text" d="M 15,9 16.414,10.4141 11,16 7.5859,12.4141 9,11 11,13.172 Z M 12,4 C 9.8519,5.9698 6.2346,7.7049 5,8 5,13.333 7.625,19.111 12,20 16.375,19.111 19,13.333 19,8 17.765,7.7049 14.148,5.9698 12,4 Z"/>
 </g>
</svg>

<svg width="24" height="24" version="1.1" xmlns="http://www.w3.org/2000/svg">
  <defs>
    <style id="current-color-scheme" type="text/css">.ColorScheme-Text { color:#ebdbb2; } .ColorScheme-Highlight { color:#458588; } .ColorScheme-NeutralText { color:#fe8019; } .ColorScheme-PositiveText { color:#689d6a; } .ColorScheme-NegativeText { color:#fb4934; }</style>
  </defs>
  <path class="ColorScheme-Text" d="m15 9 1.414 1.414-5.414 5.586-3.414-3.586 1.414-1.414 2 2.172zm-3-5c-2.148 1.97-5.765 3.705-7 4 0 5.333 2.625 11.11 7 12 4.375-0.889 7-6.667 7-12-1.235-0.2951-4.852-2.03-7-4z" fill="currentColor"/>
</svg>
